symbols/web/brush/materialsymbolsoutlined/brush_wght200grad200fill1_20px.svg

<svg xmlns="http://www.w3.org/2000/svg" height="20" width="20"><path d="M5.417 16.646q-.667 0-1.271-.281-.604-.282-1.063-.74.438-.167.823-.615.386-.448.386-1.177 0-.812.583-1.375.583-.562 1.417-.562.791 0 1.343.552.553.552.553 1.364 0 1.167-.813 2-.813.834-1.958.834Zm4.291-4.521-1.687-1.687 6.958-7.084q.229-.229.563-.229.333 0 .583.229l.583.584q.23.229.23.572 0 .344-.23.594Z"/></svg>

<svg xmlns="http://www.w3.org/2000/svg" height="20" width="20"><path d="M5.417 16.646Q4.75 16.646 4.146 16.365Q3.542 16.083 3.083 15.625Q3.521 15.458 3.906 15.01Q4.292 14.562 4.292 13.833Q4.292 13.021 4.875 12.458Q5.458 11.896 6.292 11.896Q7.083 11.896 7.635 12.448Q8.188 13 8.188 13.812Q8.188 14.979 7.375 15.812Q6.562 16.646 5.417 16.646ZM9.708 12.125 8.021 10.438 14.979 3.354Q15.208 3.125 15.542 3.125Q15.875 3.125 16.125 3.354L16.708 3.938Q16.938 4.167 16.938 4.51Q16.938 4.854 16.708 5.104Z"/></svg>
